X:105
T:My Name is Nora Daly
B:Terry "Cuz" Teahan "Sliabh Luachra on Parade" 1980
Z:Patrick Cavanagh
M:2/4
L:1/8
R:Polka
K:D
| FF ED | EA AB | cA GE | FD DE | 
F2 ED | EA A>B | cA GE |[1] D2DE :|[2] D3 A
|: dd ed | cA AB | cA GE | FD D[1]A | 
dd ed | cA A>B | cA GE | D2 D2 :| 
[2]E | F2 ED | EA A>B | cA GE | D2 D2 || 

